X: 35965
T: Sarah's Mandolin
R: slide
M: 12/8
K: Bdorian
c|:"Bm"d2B BAB FBd f2d|"A"cAe cAe dAf ecA|
"Bm"d2B BAB FBd fed|1 "A"cAe dcA "Bm"B3 B2c:|2 "Bm"cAe dcA B2BB2f||
"Bm"bff a2f bae f2d|"A"cAe cAe dfd ecA|
"Bm"bff a2f bae fed|"A"cAe dcA "Bm"B2B B2f|
"Bm"bff a2f bae f2d|"A"cAe cAe dfd ecA|
"Bm"d2B BAB FBd fed|"A"cAe dcA "Bm"B2B B3||

